X:99
T:score186
L:1/8
Q:1/4=96
M:2/4
I:linebreak $
K:G
 (B/d/).A (A/d/).G | (G/d/).F .F.A | (c/d/).B (B/d/).A | (A/d/).G .G.B | .a.g .B.d |$ .a.g .c.e | %6
 .g.f .e.F | GB G z |] %8
